X:1
T:L'Orgie
T:Antonio Barili
T:Casimir Delvigne
T:© 2019 CPDL Please forward corrections &c to RichardMix@hotmail.com
T:L'Orgie
T:© 2019 CPDL Please forward corrections &amp;c to RichardMix@hotmail.com
T:© 2019 CPDL Please forward corrections &amp;c to RichardMix@hotmail.com
T:© 2019 CPDL Please forward corrections &amp;c to RichardMix@hotmail.com
T:© 2019 CPDL Please forward corrections &amp;c to RichardMix@hotmail.com
T:© 2019 CPDL Please forward corrections &amp;c to RichardMix@hotmail.com
T:© 2019 CPDL Please forward corrections &amp;c to RichardMix@hotmail.com
T:© 2019 CPDL Please forward corrections &amp;c to RichardMix@hotmail.com
T:© 2019 CPDL Please forward corrections &amp;c to RichardMix@hotmail.com
T:© 2019 CPDL Please forward corrections &amp;c to RichardMix@hotmail.com
C:Antonio Barili
Z:Casimir Delvigne
Z:© 2019 CPDL
Z:Please forward corrections &c to RichardMix@hotmail.com
%%score [ 1 2 ]
L:1/8
Q:1/4=120
M:6/8
K:F
V:1 treble nm="Voice" snm="Voice"
V:2 bass nm="Baritone" snm="Bar."
V:1
 x6 | x6 | x6 | x6 | x6 |: z2({/A} [Acc] !>![cf]2) [Ac] | [FA]3- [FA]2 [FA] | %7
w: |||||O * a-|mis, _ que|
w: |||||Nous * te-|rons _ d'u-|
 [GB]2!<(! [Ac] [Bd]2 [ce]!<)! |!>(! ([Bd]3!>)! [Ac]2) z | z2!ff! [ce] !>!!fermata![eg]2 [df] | %10
w: ce ban- quet m'en-|chan- te|J'ai- me ces|
w: ne voix moins so-|no- re:|Mais que Bac-|
({/e} [ceg]2!p! [df]) [ce]2 [Bd] | %11
w: jeux, * me ces|
w: chus, * que Bac-|
 !wedge![Ac]!wedge![Bd]!wedge![Ac] !wedge![GB]!wedge![Ac]!wedge![GB] | [FA]2 z z3 | %13
w: jeux ce de- sordre et ces|cris.|
w: chus dic- te nos der- niers|vers|
 z2!f!({/A} [Acc] !>![cf]2) [Ac] | [FA]3- [FA]2 [FA] | [GB]2!<(! [Ac] [Bd]2!<)! [ce] | %16
w: Des * fu-|mans _ la|pour- pre~é- tin- ce-|
w: Buv- * a|lui _ qu'un|jus bru- lant co-|
!>(! ([Bd]3!>)! [Ac]2) z | z2 [ce]!>(! !>!!fermata![eg]2!>)! [df] | %18
w: lan- te,|Ces fruits e-|
w: lo- re|Nos fronts pa-|
({/e} [ceg]2!pp! [df]) [ce]2 [Bd] | %19
w: pars, * fruits e-|
w: lis, * fronts pa-|
 !wedge![Ac]!wedge![Bd]!wedge![Ac] !wedge![GB]!wedge![Ac]!wedge![GB] | [FA]2 z z3 | x6 | x6 | %23
w: pars et ces jo- yeux dé-|bris.|||
w: lis par qua- tre- vingt hi-|vers!|||
 z2!mf! A (!>!f2 e) | d3- d z d | d2!<(! ^c d2!<)! e |!>(! (f2 e!>)! d2) z | z2 A!>(! (d2!>)! c | %28
w: O mes a-|mis, _ que|ce ban- quet m'en-|chan- * te|J'ai- me ces|
w: Nous chan- te-|rons _ d'u-|ne voix moins so-|no- * re:|Mais que Bac-|
 B2) A G2 F |!<(! EFG!<)!!>(! AE!>)!G | F2 z z3 | z2 A !>!f2 e | d3- d z d | d2!<(! ^c d2 e!<)! | %34
w: jeux, j'ai- me ces|jeux ce de- sordre et ces|cris.|Des vins fu-|mans _ la|pour- pre~é- tin- ce-|
w: chus, mais que Bac-|chus dic- te nos der- niers|vers;|Buv- ons a|* lui qu'un|jus bru- lant co-|
!>(!{/g} f2 e!>)! f3- | f2!f! e (!>!gf)e | [Ac] z!p! [^G=B] ([_Bd][Ac])[^FA] | %37
w: * * te,|_ Ces fruits * e-|pars, ces fruits * e-|
w: * * re|_ Nos fronts * pa-|lis, nos fronts * pa-|
 [GB][^FA][GB] [Ac][GB][EG] | [FA] z3/2!ff! c/ !>![Af]3- | [Af]2!f! [^ce]!>(! ([eg]!>)![df])[Bd] | %40
w: pars et ces joy- eux de|bris si! si!|_ J'ai- me * ces|
w: lis par qua- tre- vingt hi-|vers: si! si!|_ Mais que * Bac-|
"^cresc." [Ac]2!<(! [Bd] [Ge]2!<)! [Af] | %41
w: jeux, j'ai- me ces|
w: chus, mais que Bac-|
"^stentate." !^![=Bg]!^![Bd]!^![Bf] !^![ce]!>(!!fermata![ca]>!>)![eg] | !^!f2 z z3 | %43
w: jeux ce de- sordre et ces|cris.|
w: chus dic- te nos der- niers|vers;|
 z2"^sotto voce e legato." d c2 d | c6- | ccd ccd | !>!c6- | c2 d c2 d | !>!c6- | ccd ccd | c6- | %51
w: Dans soi- xante|ans,|_ quand l'age im- pi- to-|ya-|ble fe- ra trem-|bler|_ les fla- cons dans ma|main|
w: Plon- geons nos|sens|_ dans une heu- reuse i-|vres-|se: le lierre, a|mis,|_ sied bien aux che- veux|blancs;|
 c z({/A} [Acc] !>![cf]2) [Ac] | [FA]3- [FA]2 [FA] | [GB]2!<(! [Ac] [Bd]2!<)! [ce] | %54
w: _ puis- * Bac-|chus _ nous|ras- sem- bler a|
w: _ Ses * meaux|verts _ cou-|vrent de leur jeu-|
!ff!!>(! (([Bg]3!>)! [Af]3-)) | [Af] z [^ce]!>(! ([eg]!>)![df])[Bd] | %56
w: ta- ble|_ Et nul _ de|
w: nes- se|_ Les vieux _ or-|
 [Ac] z!p! [^G=B] ([_Bd][Ac])[^FA] | [GB][^FA][GB] [Ac][GB][EG] | [FA] z3/2!ff! c/ !>![Af]3- | %59
w: nous, et nul _ de|nous ne mem- quer au fes-|tin no! non!|
w: meaux, les viex _ or-|meaux de pou- illes pas les|ans si! si!|
 [Af]2 [^ce]!>(! ([eg]!>)![df])[Bd] | [Ac]2!<(! [Bd] [Ge]2!<)! [Af] | %61
w: _ et nul _ de|nous, et nul de|
w: _ les vieux _ or-|meaux, les vieux or-|
"^con forza." !^![=Bg]!^![Bd]!^![Bf] !^![ce]!>(!!fermata![ca]>!>)![eg] | [Af]2 z z3 | x6 | x6 | %65
w: nous ne maquer * au festin.||||
w: meaux de pouil- les par les|ans.|||
 x6 | x6 :| z6 |] %68
w: |||
w: |||
V:2
 x6 | x6 | x6 | x6 | x6 |: z6 | z6 | z6 | z6 | z6 | z6 | z6 | z6 | z6 | z6 | z6 | z6 | z6 | z6 | %19
w: |||||||||||||||||||
w: |||||||||||||||||||
 z6 | z6 | x6 | x6 | z6 | z6 | z6 | z6 | z6 | z6 | z6 | z6 | z6 | z2 A, F,2 D, | B,A,G, G,F,E, | %34
w: |||||||||||||Des vins fu-|mans la pour- pre~é- tin- ce-|
w: |||||||||||||Buv- ons a|lui qu'un jus bru- lant co-|
 D,2 A, !>!D3- | D2 ^C (!>!ED)B, | z6 | z6 | z6 | z6 | z6 | z6 | z6 | z6 | z2!pp! E, B,2 E, | %45
w: lan- * te,|_ Ces fruits * e-|||||||||Dans soi- xante|
w: lo- * re|_ Nos fronts * pa-|||||||||Plon- geons nos|
 !wedge!B,!wedge!G,!wedge!E, !wedge!B,!wedge!G,!wedge!E, | %46
w: ans, quand l'age im- pi- to-|
w: sens dans une heu- reuse i-|
 !wedge!A,!wedge!A,!wedge!F, !wedge!A,2 !wedge!F, | %47
w: ya- ble fe- ra trem-|
w: vres- se: Le lier- re~a-|
 !wedge!A,!wedge!A,!wedge!F, !wedge!A,!wedge!G,!wedge!F, | !>!B,2 E, !>!B,2 E, | %49
w: bler les fla- cons dans ma|main puis- se Bac-|
w: mis, sied bien aux che- veux|blancs ses ra- meaux|
 !wedge!B,!wedge!G,!wedge!E, !wedge!B,!wedge!G,!wedge!E, | %50
w: chus nous ras- sem- bler a|
w: verts cou- vrent de leur jeu-|
 !wedge!A,!wedge!A,!wedge!F,!>(! A,2!>)! !wedge!F, | !wedge!A, z A,{/A,} !>!C2 A, | z6 | z6 | z6 | %55
w: tab- le, puis- se Bac-|chus, * * *||||
w: nes- se Les vieux or|meaux; * * *||||
 z6 | z6 | z6 | z6 | z6 | z6 | z6 | z6 | x6 | x6 | x6 | x6 :| z6 |] %68
w: |||||||||||||
w: |||||||||||||

